_includes/icons/color-pdf.svg

<svg fill="#666" height="50" viewBox="0 0 48 48" width="50" xmlns="http://www.w3.org/2000/svg"><path d="m40 45h-32v-42h22l10 10z" fill="#ff5722"/><path d="m38.5 14h-9.5v-9.5z" fill="#fbe9e7"/><g fill="#ffebee"><path d="m15.808594 29.5v3.5h-2.007813v-9.953125h3.390625c.984375 0 1.769532.304688 2.355469.917969.585938.609375.878906 1.402344.878906 2.378906 0 .972656-.292968 1.742188-.871093 2.308594s-1.378907.847656-2.40625.847656zm0-1.675781h1.382812c.382813 0 .679688-.125.886719-.375.210938-.25.316406-.613281.316406-1.09375 0-.496094-.109375-.890625-.320312-1.1875-.214844-.292969-.503906-.441406-.863281-.445313h-1.402344z"/><path d="m21.765625 33v-9.953125h2.628906c1.164063 0 2.089844.367188 2.78125 1.105469.6875.738281 1.042969 1.75 1.054688 3.035156v1.613281c0 1.308594-.34375 2.335938-1.035156 3.082032-.691407.746093-1.640625 1.117187-2.855469 1.117187zm2.007813-8.277344v6.609375h.601562c.671875 0 1.140625-.175781 1.414063-.53125.273437-.351562.417968-.960937.433593-1.828125v-1.726562c0-.929688-.132812-1.578125-.390625-1.945313-.261718-.367187-.703125-.558593-1.328125-.578125z"/><path d="m34.808594 28.9375h-3.125v4.0625h-2.011719v-9.953125h5.511719v1.675781h-3.5v2.550782h3.125z"/></g></svg>

<svg xmlns="http://www.w3.org/2000/svg" viewBox="0 0 48 48" width="50" height="50" fill="#666"><path d="M 40 45 L 8 45 L 8 3 L 30 3 L 40 13 Z" fill="#ff5722"/><path d="M 38.5 14 L 29 14 L 29 4.5 Z" fill="#fbe9e7"/><path d="M 15.808594 29.5 L 15.808594 33 L 13.800781 33 L 13.800781 23.046875 L 17.191406 23.046875 C 18.175781 23.046875 18.960938 23.351563 19.546875 23.964844 C 20.132813 24.574219 20.425781 25.367188 20.425781 26.34375 C 20.425781 27.316406 20.132813 28.085938 19.554688 28.652344 C 18.976563 29.21875 18.175781 29.5 17.148438 29.5 Z M 15.808594 27.824219 L 17.191406 27.824219 C 17.574219 27.824219 17.871094 27.699219 18.078125 27.449219 C 18.289063 27.199219 18.394531 26.835938 18.394531 26.355469 C 18.394531 25.859375 18.285156 25.464844 18.074219 25.167969 C 17.859375 24.875 17.570313 24.726563 17.210938 24.722656 L 15.808594 24.722656 Z" fill="#ffebee"/><path d="M 21.765625 33 L 21.765625 23.046875 L 24.394531 23.046875 C 25.558594 23.046875 26.484375 23.414063 27.175781 24.152344 C 27.863281 24.890625 28.21875 25.902344 28.230469 27.1875 L 28.230469 28.800781 C 28.230469 30.109375 27.886719 31.136719 27.195313 31.882813 C 26.503906 32.628906 25.554688 33 24.339844 33 Z M 23.773438 24.722656 L 23.773438 31.332031 L 24.375 31.332031 C 25.046875 31.332031 25.515625 31.15625 25.789063 30.800781 C 26.0625 30.449219 26.207031 29.839844 26.222656 28.972656 L 26.222656 27.246094 C 26.222656 26.316406 26.089844 25.667969 25.832031 25.300781 C 25.570313 24.933594 25.128906 24.742188 24.503906 24.722656 Z" fill="#ffebee"/><path d="M 34.808594 28.9375 L 31.683594 28.9375 L 31.683594 33 L 29.671875 33 L 29.671875 23.046875 L 35.183594 23.046875 L 35.183594 24.722656 L 31.683594 24.722656 L 31.683594 27.273438 L 34.808594 27.273438 Z" fill="#ffebee"/></svg>
